Numix/32/actions/mail-attachment.svg

<?xml version="1.0" encoding="UTF-8" standalone="no"?>
<svg
   xmlns:dc="http://purl.org/dc/elements/1.1/"
   xmlns:cc="http://creativecommons.org/ns#"
   xmlns:rdf="http://www.w3.org/1999/02/22-rdf-syntax-ns#"
   xmlns:svg="http://www.w3.org/2000/svg"
   xmlns="http://www.w3.org/2000/svg"
   xmlns:sodipodi="http://sodipodi.sourceforge.net/DTD/sodipodi-0.dtd"
   xmlns:inkscape="http://www.inkscape.org/namespaces/inkscape"
   width="32"
   height="32"
   viewBox="0 0 32 32"
   id="svg2"
   version="1.1"
   inkscape:version="0.91 r"
   sodipodi:docname="mail-attachment.svg">
  <metadata
     id="metadata28">
    <rdf:RDF>
      <cc:Work
         rdf:about="">
        <dc:format>image/svg+xml</dc:format>
        <dc:type
           rdf:resource="http://purl.org/dc/dcmitype/StillImage" />
        <dc:title></dc:title>
      </cc:Work>
    </rdf:RDF>
  </metadata>
  <defs
     id="defs26" />
  <sodipodi:namedview
     pagecolor="#ffffff"
     bordercolor="#666666"
     borderopacity="1"
     objecttolerance="10"
     gridtolerance="10"
     guidetolerance="10"
     inkscape:pageopacity="0"
     inkscape:pageshadow="2"
     inkscape:window-width="1920"
     inkscape:window-height="1056"
     id="namedview24"
     showgrid="true"
     inkscape:zoom="15.999999"
     inkscape:cx="7.7344839"
     inkscape:cy="14.800276"
     inkscape:window-x="0"
     inkscape:window-y="24"
     inkscape:window-maximized="1"
     inkscape:current-layer="svg2"
     showguides="false">
    <inkscape:grid
       type="xygrid"
       id="grid4186" />
  </sodipodi:namedview>
  <path
     style="opacity:1;fill:#808080;fill-opacity:1;fill-rule:nonzero;stroke:none;stroke-width:3;stroke-linecap:square;stroke-linejoin:miter;stroke-miterlimit:4;stroke-dasharray:none;stroke-dashoffset:0;stroke-opacity:1"
     d="M 17.5,3 C 16.722732,3 15.945464,3.19997 15.25,3.6015625 13.859071,4.4047477 13,5.893761 13,7.5 L 13,21 c 0,1.070299 0.573162,2.066328 1.5,2.601595 0.926837,0.535267 2.073163,0.535267 3,0 C 18.426837,23.066329 19,22.070298 19,21 l 0,-9.5 C 19,11.223 18.777,11 18.5,11 l -1,0 C 17.223,11 17,11.223 17,11.5 l 0,9.5 c 0,0.359182 -0.189233,0.691653 -0.5,0.871127 -0.310767,0.179473 -0.689233,0.179473 -1,0 C 15.189233,21.691653 15,21.359183 15,21 L 15,7.5 c 0,-0.8950309 0.475122,-1.7185659 1.25,-2.1660156 0.774878,-0.4474497 1.725122,-0.4474498 2.5,0 C 19.524878,5.7814341 20,6.6049691 20,7.5 L 20,23 c 0,1.42927 -0.760957,2.749978 -2,3.464877 -1.239043,0.714894 -2.760957,0.714894 -4,0 C 12.760957,25.749981 12,24.42927 12,23 L 12,9.5 C 12,9.223 11.777,9 11.5,9 l -1,0 C 10.223,9 10,9.223 10,9.5 L 10,23 c 0,2.141059 1.145032,4.12703 3,5.197298 1.854968,1.070269 4.145032,1.070269 6,0 C 20.854968,27.12703 22,25.141059 22,23 L 22,7.5 C 22,5.893761 21.140929,4.4047477 19.75,3.6015625 19.054536,3.1999699 18.277268,3 17.5,3 Z"
     id="rect4134"
     inkscape:connector-curvature="0"
     sodipodi:nodetypes="ssccssccssccssccssccssccssccssccss" />
</svg>

<svg xmlns="http://www.w3.org/2000/svg" viewBox="0 0 32 32">
 <path d="m 17.5 3 c -0.777 0 -1.555 0.2 -2.25 0.602 -1.391 0.803 -2.25 2.292 -2.25 3.898 l 0 13.5 c 0 1.07 0.573 2.066 1.5 2.602 0.927 0.535 2.073 0.535 3 0 c 0.927 -0.535 1.5 -1.531 1.5 -2.602 l 0 -9.5 c 0 -0.277 -0.223 -0.5 -0.5 -0.5 l -1 0 c -0.277 0 -0.5 0.223 -0.5 0.5 l 0 9.5 c 0 0.359 -0.189 0.692 -0.5 0.871 -0.311 0.179 -0.689 0.179 -1 0 c -0.311 -0.179 -0.5 -0.512 -0.5 -0.871 l 0 -13.5 c 0 -0.895 0.475 -1.719 1.25 -2.166 0.775 -0.447 1.725 -0.447 2.5 0 c 0.775 0.447 1.25 1.271 1.25 2.166 l 0 15.5 c 0 1.429 -0.761 2.75 -2 3.465 -1.239 0.715 -2.761 0.715 -4 0 c -1.239 -0.715 -2 -2.036 -2 -3.465 l 0 -13.5 c 0 -0.277 -0.223 -0.5 -0.5 -0.5 l -1 0 c -0.277 0 -0.5 0.223 -0.5 0.5 l 0 13.5 c 0 2.141 1.145 4.127 3 5.197 1.855 1.07 4.145 1.07 6 0 c 1.855 -1.07 3 -3.056 3 -5.197 l 0 -15.5 c 0 -1.606 -0.859 -3.095 -2.25 -3.898 -0.695 -0.402 -1.473 -0.602 -2.25 -0.602" style="fill:#808080;opacity:1;fill-opacity:1;stroke:none;fill-rule:nonzero"/>
</svg>
